X:401
T: ACH ICH FUEHLS ES IST VERSCHWUNDEN
N: B0473
O: Europa, Mitteleuropa, Deutschland
R: Liebes - Lied, Leid, Klage
M: 4/4
L: 1/16
K: Bb
D2E2 | F4G2A2B4c2d2 | d6c2e2d2
cBAG | G2F4B2A4G2A2 | B8z4
D2E2 | F4G2A2B4c2d2 | d6c2e2d2
cBAG | G2F4B2A4G2A2 | B8z4
A2B2 | c6c2B2A2G2F2 | F2B2B4z4
A2B2 | c6c2B2A2G2F2 | B8z4
D2E2 | F4G2A2B4c2d2 | d6c2e2d2
cBAG | G2F4B2A4G2A2 | B8z4
D2E2 | F4G2A2B4c2d2 | d6c2e2d2
cBAG | G2F4B2A4G2A2 | B8z4

@@@ Tune index: 2204
